!!!COM: Music21
!!!OTL: Pasacorredoiras de Soutelo
!!!OMV: pezas_pasacorredoiras_pasacorredoiras-de-soutelo_pasacorredoiras-de-soutelo-partitura.musicxml
**kern
*I"Bagpipes
*I'Bag
*clefG^2
*k[]
*M2/4
=1
!LO:TX:a:t=Andante
*MM96
!LO:TX:a:t=[quarter]=96
4.r
16eeLL
16ffJJ
=||
8ggL
8cccJ
8aaL
8bbJ
=
8ggL
8eeJ
16ccLL
16dd
16ee
16ffJJ
=
8eeL
8ddJ
16bLL
16cc
16dd
16eeJJ
=
8ddL
[8ccJ
8ccL]
16eeL
16ffJJ
=
8ggL
8cccJ
8aaL
8bbJ
=
8.ggL
16ffJk
16eeLL
16ff
16gg
16aaJJ
!!linebreak:original
=
8.bbL
16aaJk
16ggLL
16ff
16ee
16ddJJ
=
4.cc
16eeLL
16ffJJ
=||
8ggL
8cccJ
8aaL
8bbJ
=
8ggL
8eeJ
16ccLL
16dd
16ee
16ffJJ
=
8eeL
8ddJ
16bLL
16cc
16dd
16eeJJ
=
8ddL
[8ccJ
8ccL]
16eeL
16ffJJ
=
8ggL
8cccJ
8aaL
8bbJ
!!linebreak:original
=
8.ggL
16ffJk
16eeLL
16ff
16gg
16aaJJ
!!linebreak:original
=
8.bbL
16aaJk
16ggLL
16ff
16ee
16ddJJ
=
4.cc
16eeLL
16ggJJ
=||
8.cccL
16aaJk
8.bbL
16ggJk
=
8aaL
[8ffJ
8ffL]
16ggL
16aaJJ
=
8.bbL
16ggJk
8.aaL
16ffJk
=
8ggL
[8eeJ
8eeL]
16eeL
16ggJJ
=
8.cccL
16aaJk
8.bbL
16ggJk
!!linebreak:original
=
8aaL
[8ffJ
8ffL]
16ggL
16aaJJ
=
8.bbL
16aaJk
16ggLL
16ff
16ee
16ddJJ
=
4.cc
16eeLL
16ggJJ
=||
8.cccL
16aaJk
8.bbL
16ggJk
=
8aaL
[8ffJ
8ffL]
16ggL
16aaJJ
=
8.bbL
16ggJk
8.aaL
16ffJk
=
8ggL
[8eeJ
8eeL]
16eeL
16ggJJ
!!linebreak:original
=
8.cccL
16aaJk
8.bbL
16ggJk
!!linebreak:original
=
8aaL
[8ffJ
8ffL]
16ggL
16aaJJ
=
8.bbL
16aaJk
16ggLL
16ff
16ee
16ddJJ
=||
4.cc
16eeLL
16ffJJ
=||
4.cc
8r
==
*-
